T: Braes Of Auchtertyre, The
M: 4/4
L: 1/8
K: Cmaj
C2 C>F E<GG>A | c>de>d c>AG<c | (3AAA A>G A2 a2 | g>cf>e d2 c2 |C3 F E<GG>A | c>de>d c>AG<c | A>cG>c F>cE>c | d>Bc<E D2 C>f ||e>fg>a g>ec>g | a>fe>g e>dc>G | (3AAA a>g a2 (3abc' | e<cf>e d2 c>f |e>fg>a g>ec>g | afdg e>dc>G | A>cG>c F>cE>c | d/c/B/A/ c<E D2 C ||  C2 CF EGGA | cded cAGc | ~A3 ^G ~A3 a | gcfe ~d3 c |C ~F3 E ~G3 | cded cAGc | AcGc FcEc | dBcE D2 C ||efga gecg | afeg edcG | ~A2 ag ~a3 c' | ecfe ~d3 f |efga g ~e3 | afdf e ~c3 | AcGc FcEc | dBcE D2 C ||
